static/img/kroki/a0d3dd94a3ad0b5f164b2447317dd97c.svg

<?xml version="1.0" encoding="us-ascii" standalone="no"?><svg xmlns="http://www.w3.org/2000/svg" xmlns:xlink="http://www.w3.org/1999/xlink" contentStyleType="text/css" height="374px" preserveAspectRatio="none" style="width:346px;height:374px;" version="1.1" viewBox="0 0 346 374" width="346px" zoomAndPan="magnify"><defs/><g><!--class account--><g id="elem_account"><rect codeLine="23" fill="#3D176E" height="39.7891" id="account" rx="2.5" ry="2.5" style="stroke:#000D19;stroke-width:0.5;" width="107" x="229.5" y="167.79"/><ellipse cx="244.5" cy="187.6845" fill="#ADD1B2" rx="11" ry="11" style="stroke:#181818;stroke-width:1.0;"/><path d="M247.4688,193.3252 Q246.8906,193.622 246.25,193.7627 Q245.6094,193.9189 244.9063,193.9189 Q242.4063,193.9189 241.0781,192.2783 Q239.7656,190.622 239.7656,187.497 Q239.7656,184.372 241.0781,182.7158 Q242.4063,181.0595 244.9063,181.0595 Q245.6094,181.0595 246.25,181.2158 Q246.9063,181.372 247.4688,181.6689 L247.4688,184.3877 Q246.8438,183.8095 246.25,183.5439 Q245.6563,183.2627 245.0313,183.2627 Q243.6875,183.2627 243,184.3408 Q242.3125,185.4033 242.3125,187.497 Q242.3125,189.5908 243,190.6689 Q243.6875,191.7314 245.0313,191.7314 Q245.6563,191.7314 246.25,191.4658 Q246.8438,191.1845 247.4688,190.6064 L247.4688,193.3252 Z " fill="#000000"/><text fill="#D9B8FF" font-family="Helvetica" font-size="17" lengthAdjust="spacing" textLength="65" x="263.5" y="193.5698">account</text></g><!--class posthog_project--><g id="elem_posthog_project"><rect codeLine="26" fill="#3D176E" height="39.7891" id="posthog_project" rx="2.5" ry="2.5" style="stroke:#000D19;stroke-width:0.5;" width="174" x="49" y="328.58"/><ellipse cx="64" cy="348.4745" fill="#ADD1B2" rx="11" ry="11" style="stroke:#181818;stroke-width:1.0;"/><path d="M66.9688,354.1152 Q66.3906,354.412 65.75,354.5527 Q65.1094,354.7089 64.4063,354.7089 Q61.9063,354.7089 60.5781,353.0683 Q59.2656,351.412 59.2656,348.287 Q59.2656,345.162 60.5781,343.5058 Q61.9063,341.8495 64.4063,341.8495 Q65.1094,341.8495 65.75,342.0058 Q66.4063,342.162 66.9688,342.4589 L66.9688,345.1777 Q66.3438,344.5995 65.75,344.3339 Q65.1563,344.0527 64.5313,344.0527 Q63.1875,344.0527 62.5,345.1308 Q61.8125,346.1933 61.8125,348.287 Q61.8125,350.3808 62.5,351.4589 Q63.1875,352.5214 64.5313,352.5214 Q65.1563,352.5214 65.75,352.2558 Q66.3438,351.9745 66.9688,351.3964 L66.9688,354.1152 Z " fill="#000000"/><text fill="#D9B8FF" font-family="Helvetica" font-size="17" lengthAdjust="spacing" textLength="132" x="83" y="354.3598">posthog_project</text></g><!--class posthog_resource--><g id="elem_posthog_resource"><rect codeLine="29" fill="#3D176E" height="39.7891" id="posthog_resource" rx="2.5" ry="2.5" style="stroke:#000D19;stroke-width:0.5;" width="188" x="7" y="167.79"/><ellipse cx="22" cy="187.6845" fill="#ADD1B2" rx="11" ry="11" style="stroke:#181818;stroke-width:1.0;"/><path d="M24.9688,193.3252 Q24.3906,193.622 23.75,193.7627 Q23.1094,193.9189 22.4063,193.9189 Q19.9063,193.9189 18.5781,192.2783 Q17.2656,190.622 17.2656,187.497 Q17.2656,184.372 18.5781,182.7158 Q19.9063,181.0595 22.4063,181.0595 Q23.1094,181.0595 23.75,181.2158 Q24.4063,181.372 24.9688,181.6689 L24.9688,184.3877 Q24.3438,183.8095 23.75,183.5439 Q23.1563,183.2627 22.5313,183.2627 Q21.1875,183.2627 20.5,184.3408 Q19.8125,185.4033 19.8125,187.497 Q19.8125,189.5908 20.5,190.6689 Q21.1875,191.7314 22.5313,191.7314 Q23.1563,191.7314 23.75,191.4658 Q24.3438,191.1845 24.9688,190.6064 L24.9688,193.3252 Z " fill="#000000"/><text fill="#D9B8FF" font-family="Helvetica" font-size="17" lengthAdjust="spacing" textLength="146" x="41" y="193.5698">posthog_resource</text></g><!--class resource--><g id="elem_resource"><rect codeLine="32" fill="#3D176E" height="39.7891" id="resource" rx="2.5" ry="2.5" style="stroke:#000D19;stroke-width:0.5;" width="113" x="226.5" y="7"/><ellipse cx="241.5" cy="26.8945" fill="#ADD1B2" rx="11" ry="11" style="stroke:#181818;stroke-width:1.0;"/><path d="M244.4688,32.5352 Q243.8906,32.832 243.25,32.9727 Q242.6094,33.1289 241.9063,33.1289 Q239.4063,33.1289 238.0781,31.4883 Q236.7656,29.832 236.7656,26.707 Q236.7656,23.582 238.0781,21.9258 Q239.4063,20.2695 241.9063,20.2695 Q242.6094,20.2695 243.25,20.4258 Q243.9063,20.582 244.4688,20.8789 L244.4688,23.5977 Q243.8438,23.0195 243.25,22.7539 Q242.6563,22.4727 242.0313,22.4727 Q240.6875,22.4727 240,23.5508 Q239.3125,24.6133 239.3125,26.707 Q239.3125,28.8008 240,29.8789 Q240.6875,30.9414 242.0313,30.9414 Q242.6563,30.9414 243.25,30.6758 Q243.8438,30.3945 244.4688,29.8164 L244.4688,32.5352 Z " fill="#000000"/><text fill="#D9B8FF" font-family="Helvetica" font-size="17" lengthAdjust="spacing" textLength="71" x="260.5" y="32.7798">resource</text></g><!--reverse link resource to account--><g id="link_resource_account"><path codeLine="35" d="M283,65.05 C283,95.57 283,136.9 283,167.46 " fill="none" id="resource-backto-account" style="stroke:#FFAF37;stroke-width:2.0;"/><polygon fill="none" points="283,47.05,277,65.05,289,65.05,283,47.05" style="stroke:#FFAF37;stroke-width:2.0;"/></g><!--reverse link account to posthog_project--><g id="link_account_posthog_project"><path codeLine="36" d="M253.0405,221.0475 C224.7805,251.5675 182.09,297.69 153.79,328.25 " fill="none" id="account-backto-posthog_project" style="stroke:#FFAF37;stroke-width:2.0;"/><polygon fill="none" points="265.27,207.84,248.638,216.971,257.443,225.124,265.27,207.84" style="stroke:#FFAF37;stroke-width:2.0;"/></g><!--reverse link posthog_resource to posthog_project--><g id="link_posthog_resource_posthog_project"><path codeLine="37" d="M109.0961,225.4177 C115.8261,255.9377 125.03,297.69 131.76,328.25 " fill="none" id="posthog_resource-backto-posthog_project" style="stroke:#FFAF37;stroke-width:2.0;"/><polygon fill="none" points="105.22,207.84,103.2368,226.7097,114.9553,224.1257,105.22,207.84" style="stroke:#FFAF37;stroke-width:2.0;"/></g><!--SRC=[XP1BRy8m48Jl-HMME4SYHMr0weKYLUq5LQNtojXhuYRnHkjD4Ntyzq93a4bu77VcqyxiPbQ3WBBYZIYXN0BvoEVMLP9aAQP4k9vXWIG6naWpIhlc8pg-2inb2U89YazWgsINUCkioXruBsu2wq6gV4LOEzsiPvBERorm752pGde_PIQxh1c2Cdgo71lJ9RjB1oETf7VGmv0qq1uP3eSwcNIHgr4NxpuG2_i58WcVDaU6NirUn3zriUME24hs3ctzinrVfDRMhSHjeBqsdSW17UcBJ6fSxsWZ2n_6U0O2v4q5izvLC1bhavw4dy_1aTgzJaYbjXwBxoZwtKiLUivmzLuHVe0wQH5uh4b1w1rhX-d-9uxZDYPgungranJrrf_6_W00]--></g></svg>

<svg xmlns="http://www.w3.org/2000/svg" width="346" height="374" viewBox="0 0 346 374"><rect width="107" height="39.789" x="229.5" y="167.79" fill="#3D176E" rx="2.5" ry="2.5" style="stroke:#000d19;stroke-width:.5"/><circle cx="244.5" cy="187.685" r="11" fill="#ADD1B2" style="stroke:#181818;stroke-width:1"/><path d="M247.469 193.325q-.578.297-1.219.438-.64.156-1.344.156-2.5 0-3.828-1.64-1.312-1.657-1.312-4.782t1.312-4.781q1.328-1.656 3.828-1.656.703 0 1.344.156.656.156 1.219.453v2.719q-.625-.578-1.219-.844-.594-.281-1.219-.281-1.344 0-2.031 1.078-.687 1.062-.687 3.156t.687 3.172q.688 1.062 2.031 1.062.625 0 1.219-.265.594-.281 1.219-.86z"/><text x="263.5" y="193.57" fill="#D9B8FF" font-family="Helvetica" font-size="17" textLength="65">account</text><rect width="174" height="39.789" x="49" y="328.58" fill="#3D176E" rx="2.5" ry="2.5" style="stroke:#000d19;stroke-width:.5"/><circle cx="64" cy="348.474" r="11" fill="#ADD1B2" style="stroke:#181818;stroke-width:1"/><path d="M66.969 354.115q-.578.297-1.219.438-.64.156-1.344.156-2.5 0-3.828-1.64-1.312-1.657-1.312-4.782t1.312-4.781q1.328-1.656 3.828-1.656.703 0 1.344.156.656.156 1.219.453v2.719q-.625-.579-1.219-.844-.594-.281-1.219-.281-1.344 0-2.031 1.078-.687 1.062-.687 3.156t.687 3.172q.688 1.062 2.031 1.062.625 0 1.219-.265.594-.281 1.219-.86z"/><text x="83" y="354.36" fill="#D9B8FF" font-family="Helvetica" font-size="17" textLength="132">posthog_project</text><rect width="188" height="39.789" x="7" y="167.79" fill="#3D176E" rx="2.5" ry="2.5" style="stroke:#000d19;stroke-width:.5"/><circle cx="22" cy="187.685" r="11" fill="#ADD1B2" style="stroke:#181818;stroke-width:1"/><path d="M24.969 193.325q-.578.297-1.219.438-.64.156-1.344.156-2.5 0-3.828-1.64-1.312-1.657-1.312-4.782t1.312-4.781q1.328-1.656 3.828-1.656.703 0 1.344.156.656.156 1.219.453v2.719q-.625-.578-1.219-.844-.594-.281-1.219-.281-1.343 0-2.031 1.078-.687 1.062-.687 3.156t.687 3.172q.688 1.062 2.031 1.062.625 0 1.219-.265.594-.281 1.219-.86z"/><text x="41" y="193.57" fill="#D9B8FF" font-family="Helvetica" font-size="17" textLength="146">posthog_resource</text><rect width="113" height="39.789" x="226.5" y="7" fill="#3D176E" rx="2.5" ry="2.5" style="stroke:#000d19;stroke-width:.5"/><circle cx="241.5" cy="26.895" r="11" fill="#ADD1B2" style="stroke:#181818;stroke-width:1"/><path d="M244.469 32.535q-.578.297-1.219.438-.64.156-1.344.156-2.5 0-3.828-1.64-1.312-1.657-1.312-4.782t1.312-4.781q1.328-1.656 3.828-1.656.703 0 1.344.156.656.156 1.219.453v2.719q-.625-.578-1.219-.844-.594-.281-1.219-.281-1.344 0-2.031 1.078-.687 1.062-.687 3.156t.687 3.172q.688 1.062 2.031 1.062.625 0 1.219-.265.594-.281 1.219-.86z"/><text x="260.5" y="32.78" fill="#D9B8FF" font-family="Helvetica" font-size="17" textLength="71">resource</text><path fill="none" d="M283 65.05v102.41m0-120.41-6 18h12zm-29.96 173.998c-28.26 30.52-70.95 76.642-99.25 107.202m111.48-120.41-16.632 9.131 8.805 8.153zm-156.174 17.578c6.73 30.52 15.934 72.272 22.664 102.832m-26.54-120.41-1.983 18.87 11.718-2.584z" style="stroke:#ffaf37;stroke-width:2"/></svg>
